public/images/tomatoIcon.svg

<svg fill="none" height="69" viewBox="0 0 49 49" width="69" xmlns="http://www.w3.org/2000/svg"><path d="m9.46578 15.6927s3.98292-7.51827 12.60402-8.40762c8.6136-.88187 15.3884 3.09402 17.6442 8.84112 2.2557 5.7471 4.1169 14.5957-2.6876 20.7837-6.7971 6.1881-20.7412 6.8831-26.1833.1645-5.44217-6.7112-3.74476-17.4058-1.37732-21.3817z" fill="#e30613"/><path d="m36.7735 28.8982s-2.6131-.5679-5.4272-2.1149c-.871-.4783-1.5857-.7399-2.1739-.8744.737-.4858 1.4145-1.2033 2.0548-2.1599 1.0571-1.5844 2.6354-3.8937 2.6354-3.8937.0447-.0747.0447-.1569 0-.2316-.0521-.0673-.1414-.0972-.2308-.0822-1.8984.4035-3.7819 1.7263-5.1592 2.6904-.5956.4111-1.1018.7698-1.3773.8744-.0521.0224-.0893.0224-.1191.0224-.2903-1.7338-.3797-3.5798.4169-5.5677 1.0051-2.5036-.6477-5.0371-.7221-5.1418-.0521-.0822-.1638-.1195-.2606-.0822-.0968.0299-.1563.1271-.1489.2168 0 .0224.3052 2.4513-1.958 5.5528-1.0274 1.405-1.3996 2.9744-1.4815 4.3121-.8189-.9566-1.757-1.5918-2.9779-2.0477-1.958-.7324-4.2212-2.668-4.2435-2.6904-.0745-.0598-.1862-.0748-.2681-.0225-.0893.0449-.1265.142-.0967.2317.0372.1271 1.0125 3.1538 2.896 4.3571 1.005.6427 1.757 1.7786 2.2111 2.6381-.8115.2541-1.9952.7922-2.9556 1.9057-1.2731 1.4873-5.3602 2.1599-5.3975 2.1673-.1042.015-.1786.0972-.1861.1943 0 .0972.067.1794.1712.2093 3.6927.8669 8.2935-1.2182 8.4648-1.3004.4541-.1569.7966-.1121 1.0274.1271.4318.4558.402 1.532-.067 2.3541-.7222 1.263-.8488 3.8264-.4765 4.3272.0968.127.2159.1494.2829.1494h.0372c.2904-.0299.3722-.1943.469-.3811.134-.2691.4169-.8296 1.623-1.9581.9753-.9043 1.3475-1.7562 1.4741-2.4064.4169.5381 1.0944 1.1135 2.1962 1.4423 2.1813.6577 2.4642 1.4125 2.4642 1.4125.0223.0897.1117.157.2159.157h.0447c.1191-.0224.1935-.1271.1712-.2392s-.5062-2.6605-1.824-3.7741c-.1414-.1196-.2754-.2317-.3945-.3438.6179.142 1.3847.3214 2.3227.5904.9604.2691 1.9208.3662 2.8067.3662 2.159 0 3.8788-.5679 3.9755-.5978.0894-.0299.1489-.1121.1489-.2093 0-.0897-.0744-.1644-.1712-.1868" fill="#52ae32"/></svg>

<svg width="69" height="69" viewBox="0 0 49 49" fill="none" xmlns="http://www.w3.org/2000/svg">
<path d="M9.46578 15.6927C9.46578 15.6927 13.4487 8.17443 22.0698 7.28508C30.6834 6.40321 37.4582 10.3791 39.714 16.1262C41.9697 21.8733 43.8309 30.7219 37.0264 36.9099C30.2293 43.098 16.2852 43.793 10.8431 37.0744C5.40093 30.3632 7.09834 19.6686 9.46578 15.6927Z" fill="#E30613"/>
<path d="M36.7735 28.8982C36.7735 28.8982 34.1604 28.3303 31.3463 26.7833C30.4753 26.305 29.7606 26.0434 29.1724 25.9089C29.9094 25.4231 30.5869 24.7056 31.2272 23.749C32.2843 22.1646 33.8626 19.8553 33.8626 19.8553C33.9073 19.7806 33.9073 19.6984 33.8626 19.6237C33.8105 19.5564 33.7212 19.5265 33.6318 19.5415C31.7334 19.945 29.8499 21.2678 28.4726 22.2319C27.877 22.643 27.3708 23.0017 27.0953 23.1063C27.0432 23.1287 27.006 23.1287 26.9762 23.1287C26.6859 21.3949 26.5965 19.5489 27.3931 17.561C28.3982 15.0574 26.7454 12.5239 26.671 12.4192C26.6189 12.337 26.5072 12.2997 26.4104 12.337C26.3136 12.3669 26.2541 12.4641 26.2615 12.5538C26.2615 12.5762 26.5667 15.0051 24.3035 18.1066C23.2761 19.5116 22.9039 21.081 22.822 22.4187C22.0031 21.4621 21.065 20.8269 19.8441 20.371C17.8861 19.6386 15.6229 17.703 15.6006 17.6806C15.5261 17.6208 15.4144 17.6058 15.3325 17.6581C15.2432 17.703 15.206 17.8001 15.2358 17.8898C15.273 18.0169 16.2483 21.0436 18.1318 22.2469C19.1368 22.8896 19.8888 24.0255 20.3429 24.885C19.5314 25.1391 18.3477 25.6772 17.3873 26.7907C16.1142 28.278 12.0271 28.9506 11.9898 28.958C11.8856 28.973 11.8112 29.0552 11.8037 29.1523C11.8037 29.2495 11.8707 29.3317 11.9749 29.3616C15.6676 30.2285 20.2684 28.1434 20.4397 28.0612C20.8938 27.9043 21.2363 27.9491 21.4671 28.1883C21.8989 28.6441 21.8691 29.7203 21.4001 30.5424C20.6779 31.8054 20.5513 34.3688 20.9236 34.8696C21.0204 34.9966 21.1395 35.019 21.2065 35.019C21.2214 35.019 21.2288 35.019 21.2437 35.019C21.5341 34.9891 21.6159 34.8247 21.7127 34.6379C21.8467 34.3688 22.1296 33.8083 23.3357 32.6798C24.311 31.7755 24.6832 30.9236 24.8098 30.2734C25.2267 30.8115 25.9042 31.3869 27.006 31.7157C29.1873 32.3734 29.4702 33.1282 29.4702 33.1282C29.4925 33.2179 29.5819 33.2852 29.6861 33.2852C29.701 33.2852 29.7159 33.2852 29.7308 33.2852C29.8499 33.2628 29.9243 33.1581 29.902 33.046C29.8797 32.9339 29.3958 30.3855 28.078 29.2719C27.9366 29.1523 27.8026 29.0402 27.6835 28.9281C28.3014 29.0701 29.0682 29.2495 30.0062 29.5185C30.9666 29.7876 31.927 29.8847 32.8129 29.8847C34.9719 29.8847 36.6917 29.3168 36.7884 29.2869C36.8778 29.257 36.9373 29.1748 36.9373 29.0776C36.9373 28.9879 36.8629 28.9132 36.7661 28.8908" fill="#52AE32"/>
</svg>
